X:1
T: Pluto's Head
T: 8x32R 2C (RSCDS Bk 51)
P: Miss Isabella Reid's Reel
C: Isaac Cooper
C: Arr. T. Traub 8-25-17
R: reel
M: 4/4
K: Bb
L: 1/8
|: F|"Bb"f2 df "Eb"edcB|"F"AFcF dFcF|"Bb"f2 df "Cm"edcB|"F"FAcA "Bb"B2 B :|
A|"Bb"BF F2 "Eb"GE E2 |"Cm"edcB "F"Accd|"Bb"BF F2 "Eb"GE E2|"F"FAcA "Bb"B2 Bc|
"Bb"BF F2 "Eb"GE E2 |"Cm"edcB "F"A/B/c c/d/e|"Bb"f2 df "Eb"g2 bg|"F"fdec "Bb"B2 B|]
